X: 681
T: After The Sun Goes Down
R: reel
M: 4/4
K: Gmajor
|:G2 BG DGBG|egfa gedB|~G2 BG DGBG|AcBA GE ~E2|
~G2 BG DGBG|egfa gedB|egfa gedB|AcBA GE ~E2:|
|:gfeg fedB|~g2 ga bgef|gfeg fedB|AcBA GE ~E2|
gfeg fedB|~g2 ga bgef|bgaf gedB|AcBA GE ~E2:|

